bicons/16x16/emblems/siport.svg

<?xml version="1.0" encoding="UTF-8" standalone="no"?>
<!-- Created with Inkscape (http://www.inkscape.org/) -->

<svg
   xmlns:dc="http://purl.org/dc/elements/1.1/"
   xmlns:cc="http://creativecommons.org/ns#"
   xmlns:rdf="http://www.w3.org/1999/02/22-rdf-syntax-ns#"
   xmlns:svg="http://www.w3.org/2000/svg"
   xmlns="http://www.w3.org/2000/svg"
   xmlns:xlink="http://www.w3.org/1999/xlink"
   xmlns:sodipodi="http://sodipodi.sourceforge.net/DTD/sodipodi-0.dtd"
   xmlns:inkscape="http://www.inkscape.org/namespaces/inkscape"
   width="210mm"
   height="297mm"
   viewBox="0 0 744.09448819 1052.3622047"
   id="svg2"
   version="1.1"
   inkscape:version="0.91 r13725"
   inkscape:export-xdpi="3.5999999"
   inkscape:export-ydpi="3.5999999"
   sodipodi:docname="siport.svg"
   inkscape:export-filename="D:\Dokumente\Arbeit\RRZE\github\bicons\16x16\emblems\siport.png">
  <defs
     id="defs4">
    <linearGradient
       inkscape:collect="always"
       id="linearGradient4202">
      <stop
         style="stop-color:#4e505d;stop-opacity:1;"
         offset="0"
         id="stop4204" />
      <stop
         style="stop-color:#7a8597;stop-opacity:1"
         offset="1"
         id="stop4206" />
    </linearGradient>
    <linearGradient
       id="linearGradient2224">
      <stop
         id="stop2226"
         offset="0"
         style="stop-color:#7c7c7c;stop-opacity:1;" />
      <stop
         id="stop2228"
         offset="1"
         style="stop-color:#b8b8b8;stop-opacity:1;" />
    </linearGradient>
    <linearGradient
       id="linearGradient15218">
      <stop
         id="stop15220"
         offset="0"
         style="stop-color:#eeeeef;stop-opacity:1;" />
      <stop
         id="stop2736"
         offset="0.59928656"
         style="stop-color:#d3d7cf;stop-opacity:1;" />
      <stop
         id="stop2738"
         offset="0.82758623"
         style="stop-color:#ffffff;stop-opacity:1;" />
      <stop
         id="stop15222"
         offset="1"
         style="stop-color:#d3d7cf;stop-opacity:1;" />
    </linearGradient>
    <pattern
       y="0"
       x="0"
       height="6"
       width="6"
       patternUnits="userSpaceOnUse"
       id="EMFhbasepattern" />
    <pattern
       y="0"
       x="0"
       height="6"
       width="6"
       patternUnits="userSpaceOnUse"
       id="EMFhbasepattern-5" />
    <linearGradient
       inkscape:collect="always"
       xlink:href="#linearGradient4202"
       id="linearGradient4167"
       x1="13.36323"
       y1="515.6568"
       x2="503.91852"
       y2="63.828709"
       gradientUnits="userSpaceOnUse" />
    <linearGradient
       inkscape:collect="always"
       xlink:href="#linearGradient4202"
       id="linearGradient4208"
       x1="226.84613"
       y1="638.23535"
       x2="454.33087"
       y2="458.06842"
       gradientUnits="userSpaceOnUse"
       gradientTransform="matrix(0.97478125,0,0,0.85015716,10.876482,45.635493)" />
  </defs>
  <sodipodi:namedview
     id="base"
     pagecolor="#ffffff"
     bordercolor="#666666"
     borderopacity="1.0"
     inkscape:pageopacity="0.0"
     inkscape:pageshadow="2"
     inkscape:zoom="1"
     inkscape:cx="246.42304"
     inkscape:cy="442.59002"
     inkscape:document-units="px"
     inkscape:current-layer="layer1"
     showgrid="false"
     showguides="true"
     inkscape:guide-bbox="true"
     inkscape:window-width="1600"
     inkscape:window-height="837"
     inkscape:window-x="-4"
     inkscape:window-y="-4"
     inkscape:window-maximized="1">
    <sodipodi:guide
       position="315.53572,730.17859"
       orientation="0,1"
       id="guide3338" />
    <sodipodi:guide
       position="351.25,330.17858"
       orientation="0,1"
       id="guide3340" />
    <sodipodi:guide
       position="189.10714,408.8393"
       orientation="1,0"
       id="guide3344" />
    <sodipodi:guide
       position="589.04521,468.07945"
       orientation="1,0"
       id="guide3346" />
    <inkscape:grid
       type="xygrid"
       id="grid3440" />
    <sodipodi:guide
       position="589.04521,378.30213"
       orientation="1,0"
       id="guide3411" />
  </sodipodi:namedview>
  <metadata
     id="metadata7">
    <rdf:RDF>
      <cc:Work
         rdf:about="">
        <dc:format>image/svg+xml</dc:format>
        <dc:type
           rdf:resource="http://purl.org/dc/dcmitype/StillImage" />
        <dc:title>siport</dc:title>
        <dc:date>June 2015</dc:date>
        <dc:creator>
          <cc:Agent>
            <dc:title>Johannes Hechler</dc:title>
          </cc:Agent>
        </dc:creator>
        <dc:rights>
          <cc:Agent>
            <dc:title>Johannes Hechler</dc:title>
          </cc:Agent>
        </dc:rights>
        <dc:publisher>
          <cc:Agent>
            <dc:title>RRZE</dc:title>
          </cc:Agent>
        </dc:publisher>
        <dc:contributor>
          <cc:Agent>
            <dc:title>Ute Weber, Hendrik Eggers</dc:title>
          </cc:Agent>
        </dc:contributor>
      </cc:Work>
    </rdf:RDF>
  </metadata>
  <g
     inkscape:label="Ebene 1"
     inkscape:groupmode="layer"
     id="layer1">
    <g
       id="g4165">
      <g
         id="g4200">
        <rect
           style="fill:none;fill-rule:evenodd;stroke:none;stroke-width:1px;stroke-linecap:butt;stroke-linejoin:miter;stroke-opacity:1"
           id="rect3336"
           width="400"
           height="400"
           x="189.12297"
           y="322.26035"
           inkscape:export-xdpi="3.5999999"
           inkscape:export-ydpi="3.5999999" />
        <path
           sodipodi:nodetypes="ssssccsscsssccc"
           inkscape:connector-curvature="0"
           style="fill:url(#linearGradient4208);fill-opacity:1;stroke:none;stroke-width:16.95400047;stroke-linecap:round;stroke-linejoin:round;stroke-miterlimit:4;stroke-dasharray:none;stroke-dashoffset:0;stroke-opacity:1"
           d="m 249.07031,421.86719 c -19.91829,0 -35.95312,13.98371 -35.95312,31.35547 l 0,139.91406 c 0,17.37177 16.03483,31.35547 35.95312,31.35547 l 126.78321,0 43.46875,-46.63867 c -2.96743,-9.46143 -4.57227,-19.50716 -4.57227,-29.9004 0,-54.97459 44.7957,-100.28124 99.64844,-100.28124 18.12458,-10e-6 35.14916,4.94924 49.82422,13.55664 l 0,-8.00586 c 0,-17.37176 -16.03485,-31.35547 -35.95313,-31.35547 z m 197.875,199.68359 -2.74219,2.94141 c 6.35032,-0.15368 7.09401,1.09666 2.74219,-2.94141 z"
           id="rect3789" />
        <path
           style="color:#252525;clip-rule:nonzero;display:inline;overflow:visible;visibility:visible;opacity:1;isolation:auto;mix-blend-mode:normal;color-interpolation:sRGB;color-interpolation-filters:linearRGB;solid-color:#252525;solid-opacity:1;fill:#ffffff;fill-opacity:1;fill-rule:nonzero;stroke:none;stroke-width:50;stroke-linecap:square;stroke-linejoin:round;stroke-miterlimit:4;stroke-dasharray:none;stroke-dashoffset:0;stroke-opacity:1;color-rendering:auto;image-rendering:auto;shape-rendering:auto;text-rendering:auto;enable-background:accumulate"
           d="M 256.49805 448.67383 C 249.68321 448.67383 244.19727 454.15978 244.19727 460.97461 C 244.19727 467.78944 249.68321 473.27539 256.49805 473.27539 L 414.57227 473.27539 C 421.46357 464.01458 429.60071 455.73252 438.71875 448.67383 L 256.49805 448.67383 z M 514.39844 472.67188 C 515.74695 472.67188 517.08612 472.71418 518.41797 472.78711 C 518.42054 472.78637 518.42321 472.7859 518.42578 472.78516 C 517.09139 472.71275 515.75004 472.67187 514.39844 472.67188 z M 361.58203 497.37891 C 354.76722 497.37891 349.28125 502.86488 349.28125 509.67969 C 349.28125 516.4945 354.76722 521.98047 361.58203 521.98047 L 392.48828 521.98047 C 394.30954 513.4378 397.00757 505.20357 400.48438 497.37891 L 361.58203 497.37891 z "
           id="rect4238" />
        <rect
           style="color:#000000;clip-rule:nonzero;display:inline;overflow:visible;visibility:visible;opacity:1;isolation:auto;mix-blend-mode:normal;color-interpolation:sRGB;color-interpolation-filters:linearRGB;solid-color:#000000;solid-opacity:1;fill:#fbb516;fill-opacity:1;fill-rule:nonzero;stroke:none;stroke-width:20;stroke-linecap:square;stroke-linejoin:round;stroke-miterlimit:4;stroke-dasharray:none;stroke-dashoffset:0;stroke-opacity:1;color-rendering:auto;image-rendering:auto;shape-rendering:auto;text-rendering:auto;enable-background:accumulate"
           id="rect4275"
           width="75.161247"
           height="76.142532"
           x="239.4745"
           y="497.703"
           ry="14.392539" />
        <path
           id="path4231"
           d="M 514.39844 472.67188 A 74.647598 75.282974 0 0 0 439.75 547.95312 A 74.647598 75.282974 0 0 0 514.39844 623.23633 A 74.647598 75.282974 0 0 0 589.04492 547.95312 A 74.647598 75.282974 0 0 0 514.39844 472.67188 z M 539.4375 498.07812 A 24.5625 24.99836 0 0 1 564 523.07812 A 24.5625 24.99836 0 0 1 539.4375 548.07617 A 24.5625 24.99836 0 0 1 514.875 523.07812 A 24.5625 24.99836 0 0 1 539.4375 498.07812 z "
           style="color:#000000;clip-rule:nonzero;display:inline;overflow:visible;visibility:visible;opacity:1;isolation:auto;mix-blend-mode:normal;color-interpolation:sRGB;color-interpolation-filters:linearRGB;solid-color:#000000;solid-opacity:1;fill:#99b000;fill-opacity:1;fill-rule:evenodd;stroke:none;stroke-width:18;stroke-linecap:butt;stroke-linejoin:miter;stroke-miterlimit:4;stroke-dasharray:none;stroke-dashoffset:0;stroke-opacity:1;color-rendering:auto;image-rendering:auto;shape-rendering:auto;text-rendering:auto;enable-background:accumulate" />
        <path
           style="fill:#99b000;fill-rule:evenodd;stroke:none;stroke-width:1px;stroke-linecap:butt;stroke-linejoin:miter;stroke-opacity:1"
           d="m 465.7764,564.67886 -101.26272,108.64695 0,48.94643 49.98646,0 100.875,-118.07144 z"
           id="path4235"
           inkscape:connector-curvature="0"
           sodipodi:nodetypes="cccccc" />
        <path
           style="color:#000000;clip-rule:nonzero;display:inline;overflow:visible;visibility:visible;opacity:1;isolation:auto;mix-blend-mode:normal;color-interpolation:sRGB;color-interpolation-filters:linearRGB;solid-color:#000000;solid-opacity:1;fill:#99b000;fill-opacity:1;fill-rule:evenodd;stroke:none;stroke-width:18;stroke-linecap:butt;stroke-linejoin:miter;stroke-miterlimit:4;stroke-dasharray:none;stroke-dashoffset:0;stroke-opacity:1;color-rendering:auto;image-rendering:auto;shape-rendering:auto;text-rendering:auto;enable-background:accumulate"
           d="m 472.27642,638.20079 17.59871,10 2e-5,10e-6 0,25.12499 -2e-5,10e-6 -24.59871,0 -10e-6,-10e-6 -12,-7.87498 3.5,-18.25001 z"
           id="rect4237"
           inkscape:connector-curvature="0"
           sodipodi:nodetypes="cccccccccc" />
        <rect
           style="color:#000000;clip-rule:nonzero;display:inline;overflow:visible;visibility:visible;opacity:1;isolation:auto;mix-blend-mode:normal;color-interpolation:sRGB;color-interpolation-filters:linearRGB;solid-color:#000000;solid-opacity:1;fill:#99b000;fill-opacity:1;fill-rule:evenodd;stroke:none;stroke-width:50;stroke-linecap:butt;stroke-linejoin:round;stroke-miterlimit:4;stroke-dasharray:none;stroke-dashoffset:0;stroke-opacity:1;color-rendering:auto;image-rendering:auto;shape-rendering:auto;text-rendering:auto;enable-background:accumulate"
           id="rect4312"
           width="25.25"
           height="24.08193"
           x="414.50012"
           y="698.19025"
           ry="1.059e-005" />
      </g>
    </g>
  </g>
</svg>

<?xml version="1.0" encoding="UTF-8" standalone="no"?>
<!-- Created with Inkscape (http://www.inkscape.org/) -->

<svg
   xmlns:dc="http://purl.org/dc/elements/1.1/"
   xmlns:cc="http://creativecommons.org/ns#"
   xmlns:rdf="http://www.w3.org/1999/02/22-rdf-syntax-ns#"
   xmlns:svg="http://www.w3.org/2000/svg"
   xmlns="http://www.w3.org/2000/svg"
   xmlns:xlink="http://www.w3.org/1999/xlink"
   xmlns:sodipodi="http://sodipodi.sourceforge.net/DTD/sodipodi-0.dtd"
   xmlns:inkscape="http://www.inkscape.org/namespaces/inkscape"
   width="210mm"
   height="297mm"
   viewBox="0 0 744.09448819 1052.3622047"
   id="svg2"
   version="1.1"
   inkscape:version="0.91 r13725"
   inkscape:export-xdpi="3.5999999"
   inkscape:export-ydpi="3.5999999"
   sodipodi:docname="siport.svg"
   inkscape:export-filename="D:\Dokumente\Arbeit\RRZE\github\bicons\16x16\emblems\siport.png">
  <defs
     id="defs4">
    <linearGradient
       inkscape:collect="always"
       id="linearGradient4202">
      <stop
         style="stop-color:#4e505d;stop-opacity:1;"
         offset="0"
         id="stop4204" />
      <stop
         style="stop-color:#7a8597;stop-opacity:1"
         offset="1"
         id="stop4206" />
    </linearGradient>
    <linearGradient
       id="linearGradient2224">
      <stop
         id="stop2226"
         offset="0"
         style="stop-color:#7c7c7c;stop-opacity:1;" />
      <stop
         id="stop2228"
         offset="1"
         style="stop-color:#b8b8b8;stop-opacity:1;" />
    </linearGradient>
    <linearGradient
       id="linearGradient15218">
      <stop
         id="stop15220"
         offset="0"
         style="stop-color:#eeeeef;stop-opacity:1;" />
      <stop
         id="stop2736"
         offset="0.59928656"
         style="stop-color:#d3d7cf;stop-opacity:1;" />
      <stop
         id="stop2738"
         offset="0.82758623"
         style="stop-color:#ffffff;stop-opacity:1;" />
      <stop
         id="stop15222"
         offset="1"
         style="stop-color:#d3d7cf;stop-opacity:1;" />
    </linearGradient>
    <pattern
       y="0"
       x="0"
       height="6"
       width="6"
       patternUnits="userSpaceOnUse"
       id="EMFhbasepattern" />
    <pattern
       y="0"
       x="0"
       height="6"
       width="6"
       patternUnits="userSpaceOnUse"
       id="EMFhbasepattern-5" />
    <linearGradient
       inkscape:collect="always"
       xlink:href="#linearGradient4202"
       id="linearGradient4167"
       x1="13.36323"
       y1="515.6568"
       x2="503.91852"
       y2="63.828709"
       gradientUnits="userSpaceOnUse" />
    <linearGradient
       inkscape:collect="always"
       xlink:href="#linearGradient4202"
       id="linearGradient4208"
       x1="226.84613"
       y1="638.23535"
       x2="454.33087"
       y2="458.06842"
       gradientUnits="userSpaceOnUse"
       gradientTransform="matrix(0.97478125,0,0,0.85015716,10.876482,45.635493)" />
  </defs>
  <sodipodi:namedview
     id="base"
     pagecolor="#ffffff"
     bordercolor="#666666"
     borderopacity="1.0"
     inkscape:pageopacity="0.0"
     inkscape:pageshadow="2"
     inkscape:zoom="0.73"
     inkscape:cx="253.39564"
     inkscape:cy="348.7681"
     inkscape:document-units="px"
     inkscape:current-layer="layer1"
     showgrid="false"
     showguides="true"
     inkscape:guide-bbox="true"
     inkscape:window-width="1600"
     inkscape:window-height="837"
     inkscape:window-x="-4"
     inkscape:window-y="-4"
     inkscape:window-maximized="1">
    <sodipodi:guide
       position="315.53572,730.17859"
       orientation="0,1"
       id="guide3338" />
    <sodipodi:guide
       position="351.25,330.17858"
       orientation="0,1"
       id="guide3340" />
    <sodipodi:guide
       position="189.10714,408.8393"
       orientation="1,0"
       id="guide3344" />
    <sodipodi:guide
       position="589.04521,468.07945"
       orientation="1,0"
       id="guide3346" />
    <inkscape:grid
       type="xygrid"
       id="grid3440" />
    <sodipodi:guide
       position="589.04521,378.30213"
       orientation="1,0"
       id="guide3411" />
  </sodipodi:namedview>
  <metadata
     id="metadata7">
    <rdf:RDF>
      <cc:Work
         rdf:about="">
        <dc:format>image/svg+xml</dc:format>
        <dc:type
           rdf:resource="http://purl.org/dc/dcmitype/StillImage" />
        <dc:title>siport</dc:title>
        <dc:date>June 2015</dc:date>
        <dc:creator>
          <cc:Agent>
            <dc:title>Johannes Hechler</dc:title>
          </cc:Agent>
        </dc:creator>
        <dc:rights>
          <cc:Agent>
            <dc:title>Johannes Hechler</dc:title>
          </cc:Agent>
        </dc:rights>
        <dc:publisher>
          <cc:Agent>
            <dc:title>RRZE</dc:title>
          </cc:Agent>
        </dc:publisher>
        <dc:contributor>
          <cc:Agent>
            <dc:title>Ute Weber, Hendrik Eggers</dc:title>
          </cc:Agent>
        </dc:contributor>
      </cc:Work>
    </rdf:RDF>
  </metadata>
  <g
     inkscape:label="Ebene 1"
     inkscape:groupmode="layer"
     id="layer1">
    <g
       id="g4200">
      <rect
         inkscape:export-ydpi="3.5999999"
         inkscape:export-xdpi="3.5999999"
         y="322.26035"
         x="189.12297"
         height="400"
         width="400"
         id="rect3336"
         style="fill:none;fill-rule:evenodd;stroke:none;stroke-width:1px;stroke-linecap:butt;stroke-linejoin:miter;stroke-opacity:1" />
      <path
         id="rect3789"
         d="M 249.07031 421.86719 C 229.15202 421.86719 213.11719 435.8509 213.11719 453.22266 L 213.11719 593.13672 C 213.11719 610.50849 229.15202 624.49219 249.07031 624.49219 L 375.85352 624.49219 L 419.32227 577.85352 C 416.35484 568.39209 414.75 558.34636 414.75 547.95312 C 414.75 492.97853 459.5457 447.67188 514.39844 447.67188 C 532.52302 447.67187 549.5476 452.62112 564.22266 461.22852 L 564.22266 453.22266 C 564.22266 435.8509 548.18781 421.86719 528.26953 421.86719 L 249.07031 421.86719 z M 514.39844 497.67188 C 489.55916 497.67187 469.228 515.5753 465.40625 539.69727 A 25.0025 25.0025 0 0 1 481.35547 545.12695 L 530.95508 584.64844 A 25.0025 25.0025 0 0 1 537.49805 592.58008 C 553.33068 584.26865 564.04492 567.59242 564.04492 547.95312 C 564.04492 519.77248 541.99916 497.67188 514.39844 497.67188 z M 446.94531 621.55078 L 444.20312 624.49219 L 450.26367 624.49219 C 449.13815 623.5338 448.02769 622.55723 446.94531 621.55078 z "
         style="fill:url(#linearGradient4208);fill-opacity:1;stroke:none;stroke-width:16.95400047;stroke-linecap:round;stroke-linejoin:round;stroke-miterlimit:4;stroke-dasharray:none;stroke-dashoffset:0;stroke-opacity:1" />
      <path
         id="rect4238"
         d="M 256.49805 448.67383 C 249.68321 448.67383 244.19727 454.15978 244.19727 460.97461 C 244.19727 467.78944 249.68321 473.27539 256.49805 473.27539 L 414.57227 473.27539 C 421.46357 464.01458 429.60071 455.73252 438.71875 448.67383 L 256.49805 448.67383 z M 514.39844 472.67188 C 515.74695 472.67188 517.08612 472.71418 518.41797 472.78711 C 518.42054 472.78637 518.42321 472.7859 518.42578 472.78516 C 517.09139 472.71275 515.75004 472.67187 514.39844 472.67188 z M 361.58203 497.37891 C 354.76722 497.37891 349.28125 502.86488 349.28125 509.67969 C 349.28125 516.4945 354.76722 521.98047 361.58203 521.98047 L 392.48828 521.98047 C 394.30954 513.4378 397.00757 505.20357 400.48438 497.37891 L 361.58203 497.37891 z "
         style="color:#252525;clip-rule:nonzero;display:inline;overflow:visible;visibility:visible;opacity:1;isolation:auto;mix-blend-mode:normal;color-interpolation:sRGB;color-interpolation-filters:linearRGB;solid-color:#252525;solid-opacity:1;fill:#ffffff;fill-opacity:1;fill-rule:nonzero;stroke:none;stroke-width:50;stroke-linecap:square;stroke-linejoin:round;stroke-miterlimit:4;stroke-dasharray:none;stroke-dashoffset:0;stroke-opacity:1;color-rendering:auto;image-rendering:auto;shape-rendering:auto;text-rendering:auto;enable-background:accumulate" />
      <rect
         ry="14.392539"
         y="497.703"
         x="239.4745"
         height="76.142532"
         width="75.161247"
         id="rect4275"
         style="color:#000000;clip-rule:nonzero;display:inline;overflow:visible;visibility:visible;opacity:1;isolation:auto;mix-blend-mode:normal;color-interpolation:sRGB;color-interpolation-filters:linearRGB;solid-color:#000000;solid-opacity:1;fill:#fbb516;fill-opacity:1;fill-rule:nonzero;stroke:none;stroke-width:20;stroke-linecap:square;stroke-linejoin:round;stroke-miterlimit:4;stroke-dasharray:none;stroke-dashoffset:0;stroke-opacity:1;color-rendering:auto;image-rendering:auto;shape-rendering:auto;text-rendering:auto;enable-background:accumulate" />
      <ellipse
         ry="75.282974"
         rx="74.647598"
         cy="547.95404"
         cx="514.39771"
         id="path4231"
         style="color:#000000;clip-rule:nonzero;display:inline;overflow:visible;visibility:visible;opacity:1;isolation:auto;mix-blend-mode:normal;color-interpolation:sRGB;color-interpolation-filters:linearRGB;solid-color:#000000;solid-opacity:1;fill:#99b000;fill-opacity:1;fill-rule:evenodd;stroke:none;stroke-width:18;stroke-linecap:butt;stroke-linejoin:miter;stroke-miterlimit:4;stroke-dasharray:none;stroke-dashoffset:0;stroke-opacity:1;color-rendering:auto;image-rendering:auto;shape-rendering:auto;text-rendering:auto;enable-background:accumulate" />
      <path
         sodipodi:nodetypes="cccccc"
         inkscape:connector-curvature="0"
         id="path4235"
         d="m 465.7764,564.67886 -101.26272,108.64695 0,48.94643 49.98646,0 100.875,-118.07144 z"
         style="fill:#99b000;fill-rule:evenodd;stroke:none;stroke-width:1px;stroke-linecap:butt;stroke-linejoin:miter;stroke-opacity:1" />
      <path
         sodipodi:nodetypes="cccccccccc"
         inkscape:connector-curvature="0"
         id="rect4237"
         d="m 472.27642,638.20079 17.59871,10 2e-5,10e-6 0,25.12499 -2e-5,10e-6 -24.59871,0 -10e-6,-10e-6 -12,-7.87498 3.5,-18.25001 z"
         style="color:#000000;clip-rule:nonzero;display:inline;overflow:visible;visibility:visible;opacity:1;isolation:auto;mix-blend-mode:normal;color-interpolation:sRGB;color-interpolation-filters:linearRGB;solid-color:#000000;solid-opacity:1;fill:#99b000;fill-opacity:1;fill-rule:evenodd;stroke:none;stroke-width:18;stroke-linecap:butt;stroke-linejoin:miter;stroke-miterlimit:4;stroke-dasharray:none;stroke-dashoffset:0;stroke-opacity:1;color-rendering:auto;image-rendering:auto;shape-rendering:auto;text-rendering:auto;enable-background:accumulate" />
      <ellipse
         ry="24.99836"
         rx="24.5625"
         cy="523.07745"
         cx="539.43762"
         id="path4233"
         style="color:#000000;clip-rule:nonzero;display:inline;overflow:visible;visibility:visible;opacity:1;isolation:auto;mix-blend-mode:normal;color-interpolation:sRGB;color-interpolation-filters:linearRGB;solid-color:#000000;solid-opacity:1;fill:#ffffff;fill-opacity:1;fill-rule:evenodd;stroke:none;stroke-width:18;stroke-linecap:butt;stroke-linejoin:miter;stroke-miterlimit:4;stroke-dasharray:none;stroke-dashoffset:0;stroke-opacity:1;color-rendering:auto;image-rendering:auto;shape-rendering:auto;text-rendering:auto;enable-background:accumulate" />
      <rect
         ry="1.059e-005"
         y="698.19025"
         x="414.50012"
         height="24.08193"
         width="25.25"
         id="rect4312"
         style="color:#000000;clip-rule:nonzero;display:inline;overflow:visible;visibility:visible;opacity:1;isolation:auto;mix-blend-mode:normal;color-interpolation:sRGB;color-interpolation-filters:linearRGB;solid-color:#000000;solid-opacity:1;fill:#99b000;fill-opacity:1;fill-rule:evenodd;stroke:none;stroke-width:50;stroke-linecap:butt;stroke-linejoin:round;stroke-miterlimit:4;stroke-dasharray:none;stroke-dashoffset:0;stroke-opacity:1;color-rendering:auto;image-rendering:auto;shape-rendering:auto;text-rendering:auto;enable-background:accumulate" />
    </g>
  </g>
</svg>
